icons/label-chevron-left.svg

<svg xmlns="http://www.w3.org/2000/svg" width="24" height="24" viewBox="0 0 24 24">
  <path d="M15.0924635,4 C15.6691887,4 16.2178408,4.24896086 16.5976169,4.68299078 L21.8476169,10.6829908 C22.5074124,11.4370428 22.5074124,12.5629572 21.8476169,13.3170092 L16.5976169,19.3170092 C16.2178408,19.7510391 15.6691887,20 15.0924635,20 L4,20 C2.8954305,20 2,19.1045695 2,18 L2,6 C2,4.8954305 2.8954305,4 4,4 L15.0924635,4 Z M10.3871006,8.20970461 L10.2928932,8.29289322 L7.29289322,11.2928932 C6.93240926,11.6533772 6.90467972,12.2206082 7.20970461,12.6128994 L7.29289322,12.7071068 L10.2928932,15.7071068 C10.6834175,16.0976311 11.3165825,16.0976311 11.7071068,15.7071068 C12.0675907,15.3466228 12.0953203,14.7793918 11.7902954,14.3871006 L11.7071068,14.2928932 L9.415,12 L11.7071068,9.70710678 C12.0675907,9.34662282 12.0953203,8.77939176 11.7902954,8.38710056 L11.7071068,8.29289322 C11.3466228,7.93240926 10.7793918,7.90467972 10.3871006,8.20970461 Z"/>
</svg>

<svg xmlns="http://www.w3.org/2000/svg" viewBox="0 0 24 24">
  <path d="M15.1 4a2 2 0 0 1 1.5.68l5.25 6a2 2 0 0 1 0 2.64l-5.25 6a2 2 0 0 1-1.5.68H4a2 2 0 0 1-2-2V6c0-1.1.9-2 2-2h11.1zm-4.71 4.21-.1.08-3 3a1 1 0 0 0-.08 1.32l.08.1 3 3a1 1 0 0 0 1.5-1.32l-.08-.1L9.4 12l2.3-2.3a1 1 0 0 0 .08-1.31l-.08-.1a1 1 0 0 0-1.32-.08z"/>
</svg>
